svg/other/injection_fill.svg

<svg xmlns="http://www.w3.org/2000/svg" width="24" height="24" viewBox="0 0 24 24"><g fill="none" fill-rule="evenodd"><path d="M24,0 L24,24 L0,24 L0,0 L24,0 Z M12.5935,23.2578 L12.5819,23.2595 L12.5109,23.295 L12.4919,23.2987 L12.4767,23.295 L12.4057,23.2595 C12.3958,23.2564 12.387,23.259 12.3821,23.2649 L12.378,23.2758 L12.3609,23.7031 L12.3659,23.7235 L12.3769,23.7357 L12.4805,23.8097 L12.4953,23.8136 L12.5071,23.8097 L12.6107,23.7357 L12.6233,23.7197 L12.6267,23.7031 L12.6096,23.2758 C12.6076,23.2657 12.601,23.2593 12.5935,23.2578 Z M12.8584,23.1453 L12.8445,23.1473 L12.6598,23.2397 L12.6499,23.2499 L12.6472,23.2611 L12.6651,23.6906 L12.6699,23.7034 L12.6784,23.7105 L12.8793,23.8032 C12.8914,23.8069 12.9022,23.803 12.9078,23.7952 L12.9118,23.7812 L12.8777,23.1665 C12.8753,23.1546 12.8674,23.147 12.8584,23.1453 Z M12.143,23.1473 C12.1332,23.1424 12.1222,23.1453 12.1156,23.1526 L12.1099,23.1665 L12.0758,23.7812 C12.0751,23.7927 12.0828,23.8019 12.0926,23.8046 L12.1083,23.8032 L12.3092,23.7105 L12.3186,23.7024 L12.3225,23.6906 L12.3404,23.2611 L12.3372,23.2485 L12.3278,23.2397 L12.143,23.1473 Z"/><path fill="#09244B" d="M15.8891,3.16106 C16.2796,2.77053 16.9128,2.77053 17.3033,3.16106 L20.1251,5.98281 L20.1318,5.98943 L20.1384,5.99611 L20.8389,6.69659 C21.2294,7.08712 21.2294,7.72028 20.8389,8.1108 C20.4483,8.50133 19.8151,8.5013 19.4246,8.11078 L18.0104,9.52498 L19.7782,11.2928 C20.1687,11.6833 20.1687,12.3165 19.7782,12.707 C19.3877,13.0975 18.7545,13.0975 18.364,12.707 L17.6569,11.9999 L12,17.6567 C10.8285,18.8283 8.9289525,18.8283 7.75739,17.6567 L4.63606,20.7781 C4.24554,21.1686 3.61237,21.1686 3.22185,20.7781 C2.83132,20.3876 2.83132,19.7544 3.22185,19.3639 L6.34317,16.2425 C5.1716,15.0709 5.1716,13.1714 6.34317,11.9999 L12,6.34303 L11.2929,5.63594 C10.9024,5.24542 10.9024,4.61225 11.2929,4.22173 C11.6834,3.8312 12.3166,3.8312 12.7071,4.22173 L14.4749,5.9895 L15.8891,4.57527 C15.4986,4.18475 15.4986,3.55158 15.8891,3.16106 Z M18.0104,6.69656 L16.5962,8.11076 L15.8891,7.40371 L17.3033,5.98951 L18.0104,6.69656 Z M9.17161,13.4141 L8.46451,12.707 L9.87872,11.2928 L10.5858,11.9999 C10.9763,12.3904 10.9763,13.0236 10.5858,13.4141 C10.1953,13.8046 9.56213,13.8046 9.17161,13.4141 Z M11.2929,11.2929 L10.5858,10.5857 L12,9.17151 L12.7071,9.87866 C13.0977,10.2692 13.0977,10.9023 12.7071,11.2929 C12.3166,11.6834 11.6835,11.6834 11.2929,11.2929 Z"/></g></svg>

<svg xmlns="http://www.w3.org/2000/svg" width="24" height="24"><g fill="none" fill-rule="evenodd"><path d="M24 0v24H0V0zM12.594 23.258l-.012.002-.071.035-.02.004-.014-.004-.071-.036c-.01-.003-.019 0-.024.006l-.004.01-.017.428.005.02.01.013.104.074.015.004.012-.004.104-.074.012-.016.004-.017-.017-.427c-.002-.01-.009-.017-.016-.018m.264-.113-.014.002-.184.093-.01.01-.003.011.018.43.005.012.008.008.201.092c.012.004.023 0 .029-.008l.004-.014-.034-.614c-.003-.012-.01-.02-.02-.022m-.715.002a.023.023 0 0 0-.027.006l-.006.014-.034.614c0 .012.007.02.017.024l.015-.002.201-.093.01-.008.003-.011.018-.43-.003-.012-.01-.01z"/><path fill="#09244B" d="M15.89 3.161a1 1 0 0 1 1.413 0l2.822 2.822.007.006.006.007.7.7a1 1 0 0 1-1.413 1.415L18.01 9.525l1.768 1.768a1 1 0 0 1-1.414 1.414L17.657 12 12 17.657a3 3 0 0 1-4.243 0l-3.12 3.121a1 1 0 0 1-1.415-1.414l3.121-3.122a3 3 0 0 1 0-4.242L12 6.343l-.707-.707a1 1 0 0 1 1.414-1.414l1.768 1.767 1.414-1.414a1 1 0 0 1 0-1.414m2.12 3.536L16.596 8.11l-.707-.707 1.414-1.414zm-8.838 6.717-.707-.707 1.414-1.414.707.707a1 1 0 0 1-1.414 1.414m2.12-2.121-.706-.707L12 9.172l.707.707a1 1 0 1 1-1.414 1.414"/></g></svg>
